web/themes/custom/uswds_wioa/images/svg/icon-info.svg

<?xml version="1.0" encoding="UTF-8"?>
<svg width="16px" height="16px" viewBox="0 0 16 16" version="1.1" xmlns="http://www.w3.org/2000/svg" xmlns:xlink="http://www.w3.org/1999/xlink">
    <!-- Generator: Sketch 52.3 (67297) - http://www.bohemiancoding.com/sketch -->
    <title>Combined Shape</title>
    <desc>Created with Sketch.</desc>
    <g id="Symbols" stroke="none" stroke-width="1" fill="none" fill-rule="evenodd">
        <g id="UI-element-/-Icons-/-Info" fill="#000000">
            <path d="M16,8 C16,12.4166667 12.4166667,16 8,16 C3.58333333,16 0,12.4166667 0,8 C0,3.58333333 3.58333333,0 8,0 C12.4166667,0 16,3.58333333 16,8 Z M8,6 C7.44771525,6 7,6.44771525 7,7 L7,11 C7,11.5522847 7.44771525,12 8,12 C8.55228475,12 9,11.5522847 9,11 L9,7 C9,6.44771525 8.55228475,6 8,6 Z M8,3 C7.44771525,3 7,3.44771525 7,4 C7,4.55228475 7.44771525,5 8,5 C8.55228475,5 9,4.55228475 9,4 C9,3.44771525 8.55228475,3 8,3 Z" id="Combined-Shape"></path>
        </g>
    </g>
</svg>

<svg width="16" height="16" xmlns="http://www.w3.org/2000/svg"><path d="M16 8c0 4.417-3.583 8-8 8s-8-3.583-8-8 3.583-8 8-8 8 3.583 8 8zM8 6a1 1 0 0 0-1 1v4a1 1 0 0 0 2 0V7a1 1 0 0 0-1-1zm0-3a1 1 0 1 0 0 2 1 1 0 0 0 0-2z" fill-rule="evenodd"/></svg>
